packages/web-icons/svgs/app_ridi_1.svg

<svg viewBox="0 0 48 48" xmlns="http://www.w3.org/2000/svg" class="ridi_icon"><path d="M12.6 20.5c.6 0 1-.1 1.3-.4.2-.3.4-.7.4-1.3 0-.7-.1-1.1-.4-1.4-.3-.3-.7-.4-1.3-.4h-1.2v3.4h.1c.1.1 1.1.1 1.1.1zM29 24.1c.8 0 1.4-.3 1.7-.8.3-.5.5-1.4.5-2.8s-.2-2.3-.5-2.8-.9-.8-1.7-.8h-.6v7.2h.6z"/><path d="M41.6 0H6.4C2.9 0 0 2.9 0 6.4v35.2C0 45.1 2.9 48 6.4 48h35.2c3.5 0 6.4-2.9 6.4-6.4V6.4C48 2.9 45.1 0 41.6 0zM25 14.6c0-.3.1-.4.4-.4h3.7c1.9 0 3.3.5 4.2 1.4.9 1 1.3 2.6 1.3 5s-.4 4-1.3 5-2.2 1.4-4.1 1.4h-3.7c-.3 0-.4-.1-.4-.4v-12H25zm-5.5 0c0-.3.1-.4.4-.4h2.5c.3 0 .4.1.4.4v12c0 .3-.1.4-.4.4h-2.5c-.3 0-.4-.1-.4-.4v-12zm-11.4 0c0-.3.1-.4.4-.4h4.1c1.8 0 3 .3 3.8 1 .8.7 1.2 1.9 1.2 3.5 0 1.9-.7 3.1-2 3.8h-.1l-.1.1.1.1 2 3.8c.1.1.1.3.1.4 0 0 0 .1-.3.1h-2.5c-.3 0-.5-.1-.7-.4l-1.7-3.4v-.1h-1v3.5c0 .3-.1.4-.4.4H8.6c-.3 0-.4-.1-.4-.4-.1 0-.1-12-.1-12zm31.8 17.6c0 .3-.1.4-.4.4h-2.7c-1 0-6.9 0-8.3.4-2.2.5-3.4 2.1-3.6 2.5h-1.6c-.2-.4-1.4-1.9-3.6-2.5-1.4-.3-7.3-.4-8.1-.4H8.5c-.3 0-.4-.1-.4-.4v-1.4c0-.3.1-.4.4-.4h2.7s6.8 0 8.7.4c1.6.3 2.9.9 3.9 1.9l.1.1.1-.1c1-.9 2.4-1.6 3.9-1.9 2-.4 7.1-.4 8.7-.4h2.7c.3 0 .4.1.4.4l.2 1.4zm0-5.6c0 .3-.1.4-.4.4H37c-.3 0-.4-.1-.4-.4v-12c0-.3.1-.4.4-.4h2.5c.3 0 .4.1.4.4v12z"/></svg>

<?xml version="1.0" encoding="UTF-8"?>
<svg width="48px" height="48px" viewBox="0 0 48 48" version="1.1" xmlns="http://www.w3.org/2000/svg">
  <!-- Generator: Sketch 41.2 (35397) - http://www.bohemiancoding.com/sketch -->
  <title>app_ridi_1</title>
  <desc>Created with Sketch.</desc>
  <defs></defs>
  <g id="Page-1" stroke="none" stroke-width="1" fill="none" fill-rule="evenodd">
    <g id="app_ridi_1" fill="#000000">
      <g id="Layer_1">
        <path d="M12.6,20.5 C13.2,20.5 13.6,20.4 13.9,20.1 C14.1,19.8 14.3,19.4 14.3,18.8 C14.3,18.1 14.2,17.7 13.9,17.4 C13.6,17.1 13.2,17 12.6,17 L11.6,17 L11.4,17 L11.4,17.1 L11.4,20.3 L11.4,20.4 L11.5,20.4 C11.6,20.5 12.6,20.5 12.6,20.5 Z" id="Shape"></path>
        <path d="M29,24.1 C29.8,24.1 30.4,23.8 30.7,23.3 C31,22.8 31.2,21.9 31.2,20.5 C31.2,19.1 31,18.2 30.7,17.7 C30.4,17.2 29.8,16.9 29,16.9 L28.5,16.9 L28.4,16.9 L28.4,17 L28.4,24 L28.4,24.1 L28.5,24.1 L29,24.1 L29,24.1 Z" id="Shape"></path>
        <path d="M41.6,0 L6.4,0 C2.9,0 0,2.9 0,6.4 L0,41.6 C0,45.1 2.9,48 6.4,48 L41.6,48 C45.1,48 48,45.1 48,41.6 L48,6.4 C48,2.9 45.1,0 41.6,0 Z M25,14.6 C25,14.3 25.1,14.2 25.4,14.2 L29.1,14.2 C31,14.2 32.4,14.7 33.3,15.6 C34.2,16.6 34.6,18.2 34.6,20.6 C34.6,23 34.2,24.6 33.3,25.6 C32.4,26.6 31.1,27 29.2,27 L25.5,27 C25.2,27 25.1,26.9 25.1,26.6 L25.1,14.6 L25,14.6 Z M19.5,14.6 C19.5,14.3 19.6,14.2 19.9,14.2 L22.4,14.2 C22.7,14.2 22.8,14.3 22.8,14.6 L22.8,26.6 C22.8,26.9 22.7,27 22.4,27 L19.9,27 C19.6,27 19.5,26.9 19.5,26.6 L19.5,14.6 Z M8.1,14.6 C8.1,14.3 8.2,14.2 8.5,14.2 L12.6,14.2 C14.4,14.2 15.6,14.5 16.4,15.2 C17.2,15.9 17.6,17.1 17.6,18.7 C17.6,20.6 16.9,21.8 15.6,22.5 L15.5,22.5 L15.4,22.6 L15.5,22.7 L17.5,26.5 C17.6,26.6 17.6,26.8 17.6,26.9 C17.6,26.9 17.6,27 17.3,27 L14.8,27 C14.5,27 14.3,26.9 14.1,26.6 L12.4,23.2 L12.4,23.1 L12.3,23.1 L11.6,23.1 L11.4,23.1 L11.4,23.2 L11.4,26.6 C11.4,26.9 11.3,27 11,27 L8.6,27 C8.3,27 8.2,26.9 8.2,26.6 C8.1,26.6 8.1,14.6 8.1,14.6 Z M39.9,32.2 C39.9,32.5 39.8,32.6 39.5,32.6 L36.8,32.6 C35.8,32.6 29.9,32.6 28.5,33 C26.3,33.5 25.1,35.1 24.9,35.5 L23.3,35.5 C23.1,35.1 21.9,33.6 19.7,33 C18.3,32.7 12.4,32.6 11.6,32.6 L8.5,32.6 C8.2,32.6 8.1,32.5 8.1,32.2 L8.1,30.8 C8.1,30.5 8.2,30.4 8.5,30.4 L11.2,30.4 C11.2,30.4 18,30.4 19.9,30.8 C21.5,31.1 22.8,31.7 23.8,32.7 L23.9,32.8 L24,32.7 C25,31.8 26.4,31.1 27.9,30.8 C29.9,30.4 35,30.4 36.6,30.4 L39.3,30.4 C39.6,30.4 39.7,30.5 39.7,30.8 L39.9,32.2 L39.9,32.2 Z M39.9,26.6 C39.9,26.9 39.8,27 39.5,27 L37,27 C36.7,27 36.6,26.9 36.6,26.6 L36.6,14.6 C36.6,14.3 36.7,14.2 37,14.2 L39.5,14.2 C39.8,14.2 39.9,14.3 39.9,14.6 L39.9,26.6 Z" id="Shape"></path>
      </g>
    </g>
  </g>
</svg>
